svg/fluentui-system-icons/ic_fluent_vote_24_filled.svg

<svg width="24" height="24" viewBox="0 0 24 24" fill="none" xmlns="http://www.w3.org/2000/svg">
<path d="M21.9445 14.4719L21.9661 14.5337L21.9892 14.6345L21.9981 14.7331V21.25C21.9981 21.6297 21.7159 21.9435 21.3499 21.9932L21.2481 22H2.75C2.3703 22 2.05651 21.7179 2.00685 21.3518L2 21.25V14.7506L2.00184 14.6977L2.01271 14.6122C2.02285 14.5584 2.03841 14.5072 2.05894 14.4587L4.81824 8.44004C4.92517 8.20681 5.14245 8.04683 5.39153 8.01048L5.5 8.00261L8.03982 8.00184L7.25089 9.37208L7.18282 9.50184L5.981 9.50201L3.918 13.9998H20.07L18.0428 9.65384L18.9052 8.15654C18.9718 8.2074 19.0301 8.26958 19.0771 8.34111L19.1297 8.43554L21.9445 14.4719ZM13.3652 2.05566L13.4566 2.10063L18.6447 5.10376C18.9729 5.29373 19.1033 5.69522 18.9636 6.0373L18.9187 6.12891L16.112 11.001L17.25 11.0016C17.6642 11.0016 18 11.3374 18 11.7516C18 12.1313 17.7178 12.4451 17.3518 12.4948L17.25 12.5016L15.248 12.501L15.2471 12.504H11.1691L11.166 12.501L6.75 12.5016C6.33579 12.5016 6 12.1658 6 11.7516C6 11.3719 6.28215 11.0581 6.64823 11.0085L6.75 11.0016L8.573 11.001L8.39145 10.8963C8.06327 10.7063 7.93285 10.3048 8.0726 9.96273L8.11747 9.87111L12.4341 2.37537C12.6235 2.04634 13.024 1.91558 13.3652 2.05566ZM13.3559 3.7753L9.78781 9.9712L11.566 11.001H14.383L17.248 6.02819L13.3559 3.7753Z" fill="#212121"/>
</svg>

<svg xmlns="http://www.w3.org/2000/svg" width="24" height="24"><path d="m21.945 14.472.021.062.023.1.01.1v6.516a.75.75 0 0 1-.65.743l-.1.007H2.75a.75.75 0 0 1-.743-.648L2 21.25v-6.5l.002-.052.01-.086a.748.748 0 0 1 .047-.153l2.76-6.019a.75.75 0 0 1 .573-.43l.108-.007 2.54-.001-.79 1.37-.067.13H5.98L3.918 14H20.07l-2.027-4.346.862-1.497c.067.05.125.113.172.184l.053.095 2.815 6.036Zm-8.58-12.416.092.045 5.188 3.003c.328.19.458.591.319.933l-.045.092L16.112 11h1.138a.75.75 0 0 1 .102 1.494l-.102.007-2.002-.001v.003h-4.079l-.003-.003H6.75a.75.75 0 0 1-.102-1.492l.102-.007L8.573 11l-.182-.105a.752.752 0 0 1-.318-.933l.044-.092 4.317-7.496c.19-.329.59-.46.931-.32Zm-.01 1.72L9.789 9.97 11.567 11h2.817l2.865-4.973-3.892-2.253Z"/></svg>
